; generated by PrusaSlicer 2.5.0+win64 on 2022-12-07 at 23:02:12 UTC

; 

; external perimeters extrusion width = 0.42mm
; perimeters extrusion width = 0.44mm
; infill extrusion width = 0.44mm
; solid infill extrusion width = 0.44mm
; top infill extrusion width = 0.40mm
; first layer extrusion width = 0.42mm

; external perimeters extrusion width = 0.42mm
; perimeters extrusion width = 0.44mm
; infill extrusion width = 0.44mm
; solid infill extrusion width = 0.44mm
; top infill extrusion width = 0.40mm
; first layer extrusion width = 0.42mm

M107
;TYPE:Custom
G90 ; use absolute coordinates
M83 ; extruder relative mode
M140 S60 ; set final bed temp
M104 S150 ; set temporary nozzle temp to prevent oozing during homing
G4 S10 ; allow partial nozzle warmup
G28 ; home all axis
G1 Z50 F240
G1 X2 Y10 F3000
M104 S210 ; set final nozzle temp
M190 S60 ; wait for bed temp to stabilize
M109 S210 ; wait for nozzle temp to stabilize
G1 Z0.28 F240
G92 E0
G1 Y140 E10 F1500 ; prime the nozzle
G1 X2.3 F5000
G92 E0
G1 Y10 E10 F1200 ; prime the nozzle
G92 E0
G21 ; set units to millimeters
G90 ; use absolute coordinates
M83 ; use relative distances for extrusion
; Filament gcode
M107
;LAYER_CHANGE
;Z:0.2
;HEIGHT:0.2
;BEFORE_LAYER_CHANGE
G92 E0
;0.2


G1 E-5 F3600
G1 Z.2 F9000
;AFTER_LAYER_CHANGE
;0.2
G1 X72.853 Y33.597
G1 E5 F2400
M204 S500
;TYPE:Skirt/Brim
;WIDTH:0.42
G1 F1200
G1 X73.337 Y32.924 E.02599
G1 X74.252 Y32.119 E.03823
G1 X75.467 Y31.532 E.0423
G1 X76.209 Y31.359 E.02387
G1 X76.837 Y31.319 E.01974
G1 X165.053 Y31.326 E2.76594
G1 X165.465 Y31.359 E.01298
G1 X166.548 Y31.654 E.03519
G1 X167.422 Y32.119 E.03102
G1 X168.337 Y32.924 E.03823
G1 X168.821 Y33.597 E.02599
G1 X169.2 Y34.421 E.02845
G1 X169.421 Y35.312 E.02876
G1 X169.467 Y35.949 E.02003
G1 X169.467 Y103.968 E2.13268
G1 X169.005 Y187.164 E2.60862
G1 X168.928 Y188.116 E.02993
G1 X168.765 Y188.868 E.02414
G1 X168.174 Y190.287 E.04817
G1 X167.262 Y191.523 E.04818
G1 X166.415 Y192.273 E.03546
G1 X165.769 Y192.692 E.02414
G1 X164.351 Y193.283 E.04818
G1 X163.598 Y193.446 E.02413
G1 X162.635 Y193.522 E.03031
G1 X74.628 Y193.523 E2.75939
G1 X73.658 Y193.446 E.03052
G1 X72.905 Y193.283 E.02413
G1 X71.487 Y192.692 E.04818
G1 X70.251 Y191.779 E.04818
G1 X69.269 Y190.597 E.04818
G1 X68.599 Y189.214 E.04818
G1 X68.393 Y188.472 E.02414
G1 X68.258 Y187.356 E.03525
G1 X68.251 Y119.146 E2.1387
G1 X72.215 Y35.695 E2.61948
G1 X72.38 Y34.722 E.03095
G1 X72.829 Y33.652 E.03638
G1 E-3.5 F3600
;WIPE_START
G1 F7200
G1 X73.337 Y32.924 E-.42157
G1 X74.252 Y32.119 E-.57918
G1 X75.057 Y31.73 E-.42425
;WIPE_END
G1 E-.075 F3600
G1 X160.579 Y117.21 F9000
G1 E5 F2400
;TYPE:Perimeter
;WIDTH:0.419999
G1 F1200
G1 X162.484 Y117.21 E.05973
G1 X163.026 Y117.265 E.01709
G1 X163.459 Y117.413 E.01431
G1 X163.848 Y117.661 E.01447
G1 X164.164 Y117.992 E.01435
G1 X164.401 Y118.404 E.0149
G1 X164.485 Y118.678 E.00898
G1 X164.564 Y119.19 E.01626
G1 X164.564 Y120.913 E.05401
G1 X164.218 Y120.05 E.02915
G1 X163.706 Y119.245 E.0299
G1 X163.296 Y118.76 E.0199
G1 X162.881 Y118.4 E.01723
G1 X162.301 Y117.942 E.02319
G1 X161.327 Y117.434 E.03444
G1 X160.637 Y117.227 E.02259
G1 E-3.5 F3600
;WIPE_START
G1 F7200
G1 X162.484 Y117.21 E-.8776
G1 X163.026 Y117.265 E-.25895
G1 X163.459 Y117.413 E-.21686
G1 X163.586 Y117.494 E-.0716
;WIPE_END
G1 E-.075 F3600
G1 X157.874 Y117.212 F9000
G1 E5 F2400
G1 F1200
G1 X156.786 Y117.615 E.0364
G1 X155.814 Y118.223 E.03593
G1 X154.987 Y119.017 E.03593
G1 X154.338 Y119.964 E.03601
G1 X153.897 Y121.024 E.036
G1 X153.682 Y122.102 E.03445
G1 X153.661 Y122.732 E.01978
G1 X153.798 Y123.872 E.036
G1 X154.142 Y124.915 E.03444
G1 X154.434 Y125.475 E.01979
G1 X155.115 Y126.399 E.036
G1 X155.969 Y127.164 E.03592
G1 X156.917 Y127.722 E.03451
G1 X157.521 Y127.955 E.0203
G1 X158.641 Y128.197 E.03594
G1 X159.788 Y128.205 E.03594
G1 X160.913 Y127.98 E.03598
G1 X161.969 Y127.529 E.036
G1 X162.909 Y126.873 E.03596
G1 X163.669 Y126.079 E.03444
G1 X164.028 Y125.556 E.01989
G1 X164.46 Y124.69 E.03037
G1 X164.564 Y124.37 E.01055
G1 X164.564 Y181.933 E1.80486
G1 X164.218 Y181.07 E.02915
G1 X163.619 Y180.149 E.03443
G1 X163.195 Y179.682 E.01979
G1 X162.301 Y178.962 E.03598
G1 X161.327 Y178.455 E.03444
G1 X160.727 Y178.257 E.0198
G1 X159.643 Y178.071 E.03448
G1 X159.013 Y178.066 E.01974
G1 X157.876 Y178.233 E.03606
G1 X156.785 Y178.636 E.03643
G1 X155.814 Y179.244 E.03593
G1 X154.987 Y180.037 E.03593
G1 X154.338 Y180.985 E.03601
G1 X153.897 Y182.045 E.036
G1 X153.682 Y183.122 E.03445
G1 X153.661 Y183.753 E.01978
G1 X153.798 Y184.893 E.036
G1 X154.142 Y185.936 E.03444
G1 X154.434 Y186.496 E.01979
G1 X155.115 Y187.42 E.036
G1 X155.969 Y188.184 E.03592
G1 X156.917 Y188.742 E.03451
G1 X157.381 Y188.931 E.0157
G1 X157.971 Y189.081 E.01909
G1 X79.363 Y189.081 E2.46469
G1 X79.658 Y189 E.0096
G1 X80.714 Y188.55 E.036
G1 X81.655 Y187.893 E.03596
G1 X82.414 Y187.1 E.03444
G1 X82.773 Y186.577 E.01989
G1 X83.273 Y185.529 E.03642
G1 X83.544 Y184.415 E.03594
G1 X83.583 Y183.269 E.03595
G1 X83.386 Y182.138 E.03601
G1 X82.963 Y181.07 E.036
G1 X82.365 Y180.149 E.03443
G1 X81.94 Y179.682 E.01979
G1 X81.047 Y178.962 E.03598
G1 X80.072 Y178.455 E.03444
G1 X79.472 Y178.257 E.0198
G1 X78.389 Y178.071 E.03448
G1 X77.759 Y178.066 E.01974
G1 X76.621 Y178.233 E.03606
G1 X75.531 Y178.636 E.03643
G1 X74.56 Y179.244 E.03593
G1 X73.733 Y180.037 E.03593
G1 X73.084 Y180.985 E.03601
G1 X72.697 Y181.859 E.02997
G1 X72.692 Y124.338 E1.80351
G1 X72.888 Y124.915 E.0191
G1 X73.179 Y125.475 E.01979
G1 X73.86 Y126.399 E.036
G1 X74.714 Y127.164 E.03592
G1 X75.663 Y127.722 E.03451
G1 X76.266 Y127.955 E.02029
G1 X77.387 Y128.197 E.03594
G1 X78.533 Y128.205 E.03594
G1 X79.658 Y127.98 E.03598
G1 X80.714 Y127.529 E.036
G1 X81.506 Y126.996 E.02993
G1 X81.74 Y126.786 E.00985
G1 X82.414 Y126.079 E.03064
G1 X82.773 Y125.556 E.01989
G1 X83.273 Y124.508 E.03642
G1 X83.544 Y123.394 E.03594
G1 X83.583 Y122.249 E.03595
G1 X83.386 Y121.117 E.03601
G1 X82.963 Y120.05 E.036
G1 X82.365 Y119.129 E.03443
G1 X81.94 Y118.662 E.01979
G1 X81.047 Y117.942 E.03598
G1 X80.072 Y117.434 E.03444
G1 X79.325 Y117.21 E.02448
G1 X157.816 Y117.211 E2.46103
G1 X158 Y117.569 F9000
;WIDTH:0.46185
G1 F1200
G1 X158.026 Y117.541 E.00131
;WIDTH:0.503701
G1 X158.052 Y117.514 E.00145
;WIDTH:0.545552
G1 X158.077 Y117.486 E.00158
;WIDTH:0.587403
G1 X158.103 Y117.459 E.00171
G1 X158.579 Y117.413 E.02165
;WIDTH:0.556603
G1 X159.055 Y117.366 E.02042
;WIDTH:0.528744
G1 X159.634 Y117.373 E.02341
G1 X159.976 Y117.451 E.01416
;WIDTH:0.492496
G1 X160.318 Y117.529 E.0131
;WIDTH:0.456248
G1 X160.659 Y117.608 E.01204
;WIDTH:0.419999
G1 X161.202 Y117.79 E.01797
G1 X162.124 Y118.274 E.03263
G1 X162.64 Y118.69 E.02077
G1 X163.016 Y119.012 E.01555
G1 X163.388 Y119.447 E.01793
G1 X163.899 Y120.252 E.0299
;WIDTH:0.45368
G1 X164.109 Y120.745 E.01831
;WIDTH:0.48736
G1 X164.32 Y121.238 E.01981
;WIDTH:0.516183
G1 X164.349 Y121.295 E.00254
;WIDTH:0.545005
G1 X164.379 Y121.353 E.0027
G1 X164.435 Y121.828 E.01996
;WIDTH:0.507983
G1 X164.49 Y122.303 E.01849
;WIDTH:0.490951
G1 X164.458 Y123.377 E.04004
G1 X164.31 Y123.895 E.02005
;WIDTH:0.455475
G1 X164.163 Y124.412 E.01847
;WIDTH:0.419999
G1 X163.69 Y125.388 E.034
G1 X163.362 Y125.86 E.01803
G1 X162.64 Y126.609 E.03262
G1 X161.758 Y127.216 E.03354
G1 X160.771 Y127.63 E.03359
G1 X159.72 Y127.834 E.03356
G1 X158.651 Y127.82 E.03353
G1 X157.607 Y127.588 E.03352
G1 X157.059 Y127.372 E.01846
G1 X156.163 Y126.841 E.03267
G1 X155.371 Y126.123 E.03351
G1 X154.741 Y125.256 E.03359
G1 X154.48 Y124.747 E.01796
G1 X154.157 Y123.758 E.03262
G1 X154.036 Y122.693 E.03359
G1 X154.059 Y122.121 E.01795
G1 X154.266 Y121.101 E.03263
G1 X154.684 Y120.115 E.03359
G1 X155.295 Y119.235 E.03359
G1 X156.071 Y118.5 E.03352
G1 X156.98 Y117.938 E.03352
G1 X157.944 Y117.589 E.03213
G1 X158.124 Y117.925 F9000
;TYPE:External perimeter
G1 F1200
G1 X159.11 Y117.793 E.03118
G1 X159.623 Y117.804 E.01609
G1 X160.591 Y117.979 E.03085
G1 X161.078 Y118.146 E.01614
G1 X161.946 Y118.607 E.03081
G1 X162.732 Y119.261 E.03207
G1 X163.07 Y119.649 E.01612
G1 X163.581 Y120.454 E.0299
G1 X163.935 Y121.383 E.03117
G1 X164.092 Y122.365 E.03117
G1 X164.046 Y123.356 E.03111
G1 X163.798 Y124.317 E.03111
G1 X163.353 Y125.22 E.03158
G1 X163.055 Y125.641 E.01617
G1 X162.37 Y126.346 E.03081
G1 X161.548 Y126.903 E.03113
G1 X160.629 Y127.281 E.03117
G1 X159.652 Y127.464 E.03115
G1 X158.66 Y127.443 E.03111
G1 X157.693 Y127.22 E.03111
G1 X157.201 Y127.023 E.01662
G1 X156.358 Y126.518 E.03083
G1 X155.628 Y125.846 E.0311
G1 X155.048 Y125.038 E.03117
G1 X154.817 Y124.579 E.01612
G1 X154.517 Y123.643 E.03081
G1 X154.411 Y122.655 E.03117
G1 X154.435 Y122.141 E.01612
G1 X154.635 Y121.179 E.03082
G1 X155.029 Y120.266 E.03117
G1 X155.602 Y119.454 E.03117
G1 X156.327 Y118.776 E.0311
G1 X157.175 Y118.261 E.03111
G1 X158.068 Y117.945 E.02971
G1 X158.238 Y117.541 F9000
G1 E-3.5 F3600
;WIPE_START
G1 F7200
G1 X159.11 Y117.793 E-.50034
G1 X159.623 Y117.804 E-.2437
G1 X160.591 Y117.979 E-.46733
G1 X161.017 Y118.125 E-.21363
;WIPE_END
G1 E-.075 F3600
G1 X164.564 Y185.39 F9000
G1 E5 F2400
;TYPE:Perimeter
G1 F1200
G1 X164.564 Y186.9 E.04735
G1 X164.508 Y187.546 E.02033
G1 X164.36 Y187.977 E.01427
G1 X164.113 Y188.365 E.01442
G1 X163.777 Y188.686 E.01457
G1 X163.371 Y188.918 E.01468
G1 X162.875 Y189.057 E.01615
G1 X162.596 Y189.081 E.00878
G1 X160.618 Y189.081 E.06203
G1 X160.913 Y189 E.0096
G1 X161.798 Y188.64 E.02997
G1 X162.793 Y187.994 E.03721
G1 X163.669 Y187.1 E.03924
G1 X164.028 Y186.577 E.01989
G1 X164.46 Y185.71 E.03037
G1 X164.545 Y185.447 E.00867
G1 X164.133 Y185.494 F9000
G1 F1200
G1 X163.69 Y186.409 E.03187
G1 X163.362 Y186.881 E.01803
G1 X162.551 Y187.704 E.03624
G1 X161.758 Y188.237 E.02993
G1 X160.771 Y188.651 E.03359
;WIDTH:0.462224
G1 X160.591 Y188.717 E.00669
;WIDTH:0.504449
G1 X160.41 Y188.784 E.00736
;WIDTH:0.546673
G1 X160.23 Y188.85 E.00804
G1 X159.182 Y188.927 E.04404
;WIDTH:0.542705
G1 X158.601 Y188.898 E.02417
G1 X158.269 Y188.801 E.01436
;WIDTH:0.501803
G1 X157.938 Y188.705 E.01318
;WIDTH:0.460901
G1 X157.606 Y188.608 E.01201
;WIDTH:0.419999
G1 X157.059 Y188.393 E.01843
G1 X156.163 Y187.861 E.03267
G1 X155.371 Y187.143 E.03351
G1 X154.741 Y186.277 E.03359
G1 X154.48 Y185.768 E.01796
G1 X154.157 Y184.778 E.03262
G1 X154.036 Y183.714 E.03359
G1 X154.059 Y183.142 E.01795
G1 X154.266 Y182.122 E.03263
G1 X154.684 Y181.136 E.03359
G1 X155.295 Y180.256 E.03359
G1 X156.071 Y179.52 E.03352
G1 X156.98 Y178.958 E.03352
G1 X158 Y178.589 E.03401
G1 X159.062 Y178.44 E.03362
G1 X159.633 Y178.448 E.01791
G1 X160.659 Y178.628 E.03267
G1 X161.202 Y178.811 E.01797
G1 X162.124 Y179.295 E.03263
G1 X162.953 Y179.972 E.03357
G1 X163.336 Y180.398 E.01796
G1 X163.899 Y181.273 E.03262
;WIDTH:0.453679
G1 X164.109 Y181.766 E.01831
;WIDTH:0.487359
G1 X164.32 Y182.259 E.01981
;WIDTH:0.516182
G1 X164.349 Y182.316 E.00254
;WIDTH:0.545005
G1 X164.379 Y182.373 E.0027
G1 X164.435 Y182.848 E.01996
;WIDTH:0.507983
G1 X164.49 Y183.323 E.01849
;WIDTH:0.490951
G1 X164.458 Y184.398 E.04004
G1 X164.31 Y184.915 E.02005
;WIDTH:0.455475
G1 X164.163 Y185.433 E.01847
;WIDTH:0.419999
G1 X164.159 Y185.44 E.00025
G1 X163.798 Y185.338 F9000
;TYPE:External perimeter
G1 F1200
G1 X163.353 Y186.241 E.03158
G1 X163.055 Y186.662 E.01617
G1 X162.34 Y187.391 E.03202
G1 X161.548 Y187.924 E.02993
G1 X160.629 Y188.302 E.03117
G1 X160.13 Y188.422 E.01609
G1 X159.149 Y188.499 E.03084
G1 X158.635 Y188.461 E.01614
G1 X157.693 Y188.241 E.03036
G1 X157.201 Y188.044 E.01661
G1 X156.358 Y187.538 E.03083
G1 X155.628 Y186.867 E.0311
G1 X155.048 Y186.059 E.03117
G1 X154.817 Y185.599 E.01612
G1 X154.517 Y184.664 E.03081
G1 X154.411 Y183.675 E.03117
G1 X154.435 Y183.162 E.01612
G1 X154.635 Y182.199 E.03082
G1 X155.029 Y181.287 E.03117
G1 X155.602 Y180.474 E.03117
G1 X156.327 Y179.797 E.0311
G1 X157.175 Y179.281 E.03111
G1 X158.124 Y178.945 E.03159
G1 X159.11 Y178.814 E.03118
G1 X159.623 Y178.825 E.01609
G1 X160.591 Y178.999 E.03085
G1 X161.078 Y179.167 E.01614
G1 X161.946 Y179.628 E.03082
G1 X162.711 Y180.261 E.03115
G1 X163.052 Y180.647 E.01613
G1 X163.581 Y181.475 E.03081
G1 X163.935 Y182.404 E.03117
G1 X164.092 Y183.385 E.03117
G1 X164.046 Y184.377 E.03111
G1 X163.813 Y185.279 E.02923
G1 X164.053 Y185.646 F9000
G1 E-3.5 F3600
;WIPE_START
G1 F7200
G1 X163.353 Y186.241 E-.50628
G1 X163.055 Y186.662 E-.24499
G1 X162.34 Y187.391 E-.48505
G1 X162.01 Y187.613 E-.18869
;WIPE_END
G1 E-.075 F3600
G1 X72.692 Y185.359 F9000
G1 E5 F2400
;TYPE:Perimeter
G1 F1200
G1 X72.888 Y185.936 E.0191
G1 X73.179 Y186.496 E.01979
G1 X73.86 Y187.42 E.036
G1 X74.56 Y188.068 E.0299
G1 X74.927 Y188.313 E.01384
G1 X75.663 Y188.742 E.0267
G1 X76.127 Y188.931 E.0157
G1 X76.716 Y189.081 E.01909
G1 X74.714 Y189.081 E.0628
G1 X74.228 Y189.026 E.01531
G1 X73.797 Y188.878 E.01429
G1 X73.409 Y188.631 E.01444
G1 X73.088 Y188.294 E.01458
G1 X72.855 Y187.887 E.0147
G1 X72.717 Y187.391 E.01616
G1 X72.692 Y187.113 E.00874
G1 X72.692 Y185.419 E.05313
G1 X72.867 Y184.781 F9000
;WIDTH:0.514293
G1 F1200
G1 X72.832 Y184.67 E.0046
G1 X72.759 Y183.716 E.03747
;WIDTH:0.476279
G1 X72.776 Y183.141 E.02075
G1 X72.894 Y182.631 E.01883
;WIDTH:0.448139
G1 X73.011 Y182.122 E.01761
;WIDTH:0.419999
G1 X73.429 Y181.136 E.03359
G1 X74.04 Y180.256 E.03359
G1 X74.816 Y179.52 E.03352
G1 X75.726 Y178.958 E.03352
G1 X76.746 Y178.589 E.03401
G1 X77.807 Y178.44 E.03362
G1 X78.379 Y178.448 E.01791
G1 X79.405 Y178.628 E.03267
G1 X79.948 Y178.811 E.01797
G1 X80.869 Y179.295 E.03263
G1 X81.699 Y179.972 E.03357
G1 X82.081 Y180.398 E.01796
G1 X82.645 Y181.273 E.03262
G1 X83.034 Y182.271 E.03359
G1 X83.21 Y183.327 E.03359
G1 X83.168 Y184.396 E.03353
G1 X82.908 Y185.433 E.03352
G1 X82.436 Y186.409 E.034
G1 X82.107 Y186.881 E.01803
G1 X81.385 Y187.63 E.03263
G1 X80.504 Y188.237 E.03354
G1 X79.516 Y188.651 E.03359
;WIDTH:0.462224
G1 X79.336 Y188.717 E.00669
;WIDTH:0.504448
G1 X79.156 Y188.784 E.00736
;WIDTH:0.546672
G1 X78.976 Y188.85 E.00804
G1 X77.927 Y188.927 E.04404
;WIDTH:0.542704
G1 X77.347 Y188.898 E.02417
G1 X77.015 Y188.801 E.01436
;WIDTH:0.501803
G1 X76.683 Y188.705 E.01318
;WIDTH:0.460901
G1 X76.352 Y188.608 E.01201
;WIDTH:0.419999
G1 X75.805 Y188.393 E.01843
G1 X74.816 Y187.792 E.03628
G1 X74.117 Y187.143 E.0299
G1 X73.441 Y186.202 E.03633
G1 X73.192 Y185.687 E.01793
;WIDTH:0.454885
G1 X73.031 Y185.238 E.01635
;WIDTH:0.48977
G1 X72.887 Y184.838 E.01579
G1 X73.262 Y184.664 F9000
;TYPE:External perimeter
;WIDTH:0.419999
G1 F1200
G1 X73.156 Y183.675 E.03117
G1 X73.181 Y183.162 E.01612
G1 X73.38 Y182.199 E.03082
G1 X73.775 Y181.287 E.03117
G1 X74.348 Y180.474 E.03117
G1 X75.072 Y179.797 E.0311
G1 X75.92 Y179.281 E.03111
G1 X76.87 Y178.945 E.03159
G1 X77.856 Y178.814 E.03118
G1 X78.369 Y178.825 E.01609
G1 X79.337 Y178.999 E.03085
G1 X79.824 Y179.167 E.01614
G1 X80.692 Y179.628 E.03081
G1 X81.457 Y180.261 E.03115
G1 X81.798 Y180.646 E.01613
G1 X82.326 Y181.475 E.03081
G1 X82.681 Y182.404 E.03117
G1 X82.838 Y183.385 E.03117
G1 X82.791 Y184.377 E.03111
G1 X82.544 Y185.338 E.03111
G1 X82.098 Y186.241 E.03158
G1 X81.8 Y186.662 E.01617
G1 X81.115 Y187.366 E.03081
G1 X80.294 Y187.924 E.03113
G1 X79.374 Y188.302 E.03117
G1 X78.875 Y188.422 E.01609
G1 X77.894 Y188.499 E.03084
G1 X77.381 Y188.461 E.01614
G1 X76.438 Y188.241 E.03036
G1 X75.947 Y188.044 E.01661
G1 X75.072 Y187.515 E.03203
G1 X74.373 Y186.867 E.0299
G1 X73.779 Y186.034 E.03209
G1 X73.552 Y185.573 E.01612
G1 X73.28 Y184.721 E.02802
G1 X72.884 Y184.533 F9000
G1 E-3.5 F3600
;WIPE_START
G1 F7200
G1 X73.156 Y183.675 E-.5002
G1 X73.181 Y183.162 E-.24413
G1 X73.38 Y182.199 E-.46689
G1 X73.559 Y181.786 E-.21378
;WIPE_END
G1 E-.075 F3600
G1 X72.697 Y120.838 F9000
G1 E5 F2400
;TYPE:Perimeter
G1 F1200
G1 X72.692 Y119.23 E.05041
G1 X72.748 Y118.746 E.0153
G1 X72.896 Y118.313 E.01433
G1 X73.143 Y117.926 E.01439
G1 X73.478 Y117.606 E.01454
G1 X73.885 Y117.373 E.01469
G1 X74.356 Y117.241 E.01534
G1 X74.66 Y117.21 E.00959
G1 X76.621 Y117.211 E.06147
G1 X75.531 Y117.615 E.03643
G1 X74.714 Y118.107 E.02991
G1 X74.276 Y118.486 E.01817
G1 X73.733 Y119.017 E.0238
G1 X73.417 Y119.461 E.01711
